X: 1
T:Wide Awake -- Reel
M:2/4
L:1/16
R:reel
B:Ryan's Mammoth Collection
Z:Contributed by Ray Davies,  ray:davies99.freeserve.co.uk
K:A
uA,2|A,2CE Acec|dfec BcAF|DECE Acec|dfec A2ED|
E2FG Acec|dBcA BcA2|DECE Acec|dfec A2::
fg|agab aeca|ecac eaca|agab aeca|begb egbe|
agae faec|dBcA BcA2|DECE Acec|dfec A2:|
